X: 19505
T: Jacky Tar
R: hornpipe
M: 4/4
K: Edorian
(3Bcd|e2ef e2ef|edBA B2AB|d2dc dfgf|edBG AcBA|
GFGA B2gf|edBd efg2|EFGA BdBA|G2E2 E2:|
GA|BGEG BGEG|BGAF E2FG|AFDF AFDF|AFGE DEFA|
GFGA B2gf|edBd efg2|EFGA BdBA|G2E2 E2:|

